images/skills/nodejs.svg

<?xml version="1.0" encoding="UTF-8"?>
<svg xmlns="http://www.w3.org/2000/svg" xmlns:xlink="http://www.w3.org/1999/xlink" width="64pt" height="64pt" viewBox="0 0 64 64" version="1.1">
<g id="surface10080509">
<path style=" stroke:none;fill-rule:nonzero;fill:rgb(18.039216%,80%,44.313725%);fill-opacity:1;" d="M 31.988281 6 C 31.257812 6 30.527344 6.179688 29.898438 6.539062 L 10.078125 17.980469 C 8.796875 18.71875 8 20.121094 8 21.601562 L 8 42.359375 C 8 43.859375 8.796875 45.242188 10.078125 45.980469 L 15.28125 48.980469 C 17.800781 50.21875 18.699219 50.21875 19.839844 50.21875 C 23.578125 50.21875 25.71875 47.960938 25.71875 44.039062 L 25.71875 22.621094 C 25.71875 22.300781 25.460938 22.039062 25.140625 22.039062 L 22.640625 22.039062 C 22.300781 22.039062 22.058594 22.300781 22.058594 22.621094 L 22.058594 44.019531 C 22.058594 45.78125 20.242188 47.5 17.300781 46.039062 L 11.859375 42.898438 C 11.660156 42.796875 11.539062 42.578125 11.539062 42.359375 L 11.539062 21.621094 C 11.539062 21.382812 11.660156 21.179688 11.859375 21.058594 L 31.679688 9.621094 C 31.859375 9.5 32.101562 9.5 32.300781 9.621094 L 52.121094 21.058594 C 52.320312 21.179688 52.441406 21.382812 52.441406 21.601562 L 52.441406 42.359375 C 52.441406 42.578125 52.320312 42.796875 52.140625 42.898438 L 32.300781 54.359375 C 32.121094 54.460938 31.859375 54.460938 31.679688 54.359375 L 26.578125 51.339844 C 26.4375 51.238281 26.242188 51.222656 26.101562 51.300781 C 24.679688 52.101562 24.421875 52.199219 23.101562 52.660156 C 22.78125 52.761719 22.28125 52.960938 23.28125 53.519531 L 29.898438 57.441406 C 30.539062 57.800781 31.261719 58 31.980469 58 C 32.71875 58 33.4375 57.800781 34.078125 57.441406 L 53.921875 45.980469 C 55.203125 45.242188 56 43.859375 56 42.359375 L 56 21.621094 C 56 20.121094 55.203125 18.738281 53.921875 18 L 34.078125 6.539062 C 33.449219 6.179688 32.71875 6 31.988281 6 Z M 37.320312 22.011719 C 31.660156 22.011719 28.28125 24.410156 28.28125 28.410156 C 28.28125 32.75 31.636719 33.949219 37.078125 34.488281 C 43.578125 35.128906 44.078125 36.089844 44.078125 37.371094 C 44.078125 39.570312 42.300781 40.511719 38.121094 40.511719 C 32.859375 40.511719 31.699219 39.191406 31.320312 36.589844 C 31.28125 36.308594 31.042969 36.109375 30.761719 36.109375 L 28.179688 36.109375 C 27.859375 36.109375 27.621094 36.371094 27.621094 36.671875 C 27.621094 40.011719 29.441406 43.988281 38.121094 43.988281 C 44.402344 43.988281 48 41.511719 48 37.191406 C 48 32.910156 45.097656 31.769531 39.019531 30.949219 C 32.839844 30.148438 32.21875 29.730469 32.21875 28.289062 C 32.21875 27.089844 32.761719 25.511719 37.320312 25.511719 C 41.378906 25.511719 42.898438 26.390625 43.519531 29.128906 C 43.578125 29.390625 43.796875 29.589844 44.078125 29.589844 L 46.660156 29.589844 C 46.820312 29.589844 46.957031 29.511719 47.078125 29.390625 C 47.179688 29.289062 47.238281 29.128906 47.21875 28.949219 C 46.820312 24.230469 43.679688 22.011719 37.320312 22.011719 Z M 37.320312 22.011719 "/>
</g>
</svg>

<svg xmlns="http://www.w3.org/2000/svg" width="64pt" height="64pt" viewBox="0 0 64 64"><path d="M31.988 6c-.73 0-1.46.18-2.09.54l-19.82 11.44A4.202 4.202 0 008 21.602v20.757c0 1.5.797 2.883 2.078 3.621l5.203 3c2.52 1.239 3.418 1.239 4.559 1.239 3.738 0 5.879-2.258 5.879-6.18V22.621a.58.58 0 00-.578-.582h-2.5a.571.571 0 00-.582.582V44.02c0 1.761-1.817 3.48-4.758 2.02l-5.442-3.142a.61.61 0 01-.32-.539V21.621c0-.238.121-.441.32-.562L31.68 9.62a.576.576 0 01.622 0L52.12 21.06c.2.12.32.324.32.543v20.757a.633.633 0 01-.3.54L32.3 54.358a.671.671 0 01-.621 0l-5.102-3.02a.459.459 0 00-.476-.038c-1.422.8-1.68.898-3 1.36-.32.1-.82.3.18.859l6.616 3.921c.641.36 1.364.559 2.082.559.739 0 1.457-.2 2.098-.559l19.844-11.46A4.178 4.178 0 0056 42.358V21.621c0-1.5-.797-2.883-2.078-3.621L34.078 6.54a4.229 4.229 0 00-2.09-.54zm5.332 16.012c-5.66 0-9.039 2.398-9.039 6.398 0 4.34 3.356 5.54 8.797 6.078 6.5.64 7 1.602 7 2.883 0 2.2-1.777 3.14-5.957 3.14-5.262 0-6.422-1.32-6.8-3.921a.557.557 0 00-.56-.48H28.18a.56.56 0 00-.559.562c0 3.34 1.82 7.316 10.5 7.316 6.281 0 9.879-2.476 9.879-6.797 0-4.28-2.902-5.421-8.98-6.242-6.18-.8-6.801-1.219-6.801-2.66 0-1.2.543-2.777 5.101-2.777 4.059 0 5.578.879 6.2 3.617.058.262.277.46.558.46h2.582c.16 0 .297-.077.418-.198a.539.539 0 00.14-.442c-.398-4.719-3.538-6.937-9.898-6.937zm0 0" fill="#2ecc71"/></svg>
